X:730
T:Put Me In the Big Chest
S:Sessions, Laurie's Bar, Glasgow 18/10/04
Z:Nigel Gatherer (corrected by Derek Hoy) scots-l 2004-10-19
L:1/8
M:4/4
K:A
|: EFAB c2cf | ecBA F2AF | EFAB cBcf | ecBc A3z :|
|: efec eAAc | efec BABc | efec efaf | ecBc A3a :|
|: EFAB c2cB | c2cB cef2 | EFAB cBcf | ecBc A3z :|
|: efec eAA2 | efec BABc | efec efaf | ecBc A3a :|
